X:1
T:Title
%%score { ( 1 3 4 ) | ( 2 5 ) }
L:1/8
Q:1/4=116
M:4/4
K:Ab
V:1 treble nm="Grand Piano"
V:3 treble 
V:4 treble 
V:2 bass 
V:5 bass 
V:1
 [CA]2 [CA]2 [CA]3 [DB] | [CA]2 [CA]2 [DF]2 [CE]2 | c2 c2 c2 A2 | d2 d2 c4 | B2 B2 B3 [=Dc] | %5
w: Charles~H.~Gabriel * * *|||||
 B2 B2 B2 [=Dc]2 | B2 c2 [A=d]2 [Ge]2 | [EG]2 [=DF]2 E4 | e2 c2 d3 [EB] | [Ee]2 [Ed]2 [Ec]4 | %10
w: |||||
 [Ec]2 [CG]2 [CFA]2 [CF=A]2 | [B,FB]2 [B,=DF]2 [B,EG]4 | [A,EA]2 [DA]2 z2 z A | %13
w: |||
 A2 [_GA]2 f- [Af]3 | [Ae]2 [A=d]2 [Ae]2 [=DA]2 |[M:9/8] [EAc]3 [DEB]3 [CEA]3 |[M:1/4] z2 | %17
w: ||||
[M:4/4] z2 [A,E]2 E2 [DEB]2 | A6 z2 | d6 z2 | B6 z2 | [EAe]4 [EGd]4 | [EAc]6 [E_Gc]2 | %23
w: ||||||
 [Dd]2 z2 [DB]2 z2 | E4- [EG]2 E2 | c6 z2 | A6 z2 | d6 z2 | B6 z2 | [EAe]4 [EGd]4 | A2 z2 d2 z2 | %31
w: ||||||||
 A4 G4 |[M:3/4] [CA]6 |] %33
w: ||
V:2
 [A,,E,]2 [A,,E,]2 [A,,E,]3 [A,,E,] | [A,,E,]2 [A,,E,]2 [A,,A,]2 [A,,A,]2 | %2
 [A,E]2 [A,E]2 [A,E]2 [A,C]2 | [A,F]2 [A,F]2[K:bass] [A,E]4 | [E,G,E]2 [E,G,E]2 [F,A,=D]3 [B,,A,] | %5
 [E,G,E]2 [E,G,E]2 [F,A,=D]2 [B,,A,]2 | [E,G,E]2 [A,E]2 [F,B,]2 [E,B,]2 | %7
 [B,,B,]2 [B,,A,]2 [E,G,]4 | [E,CE]2 [E,=A,E]2 [E,B,E]3 [D,G,] | [C,A,]2 [B,,G,]2 [A,,A,]4 | %10
 [C,G,]2 =E,2 F,2 _E,2 | =D,2 D,2 E,2 _D,2 | z4 z2 G,2 | [F,A,D]2 [E,C]2 [D,D]4 | %14
 [E,C]2 [=E,_C]2 [_E,=C]2 F,2 |[M:9/8] E,3 E,3 A,,3 |[M:1/4][K:treble] E2 |[M:4/4] c6[K:bass] z2 | %18
 A,,2 A,,2 A,,2 z2 | z2 [E,G,]2 [G,B,]2 [A,E]2 | [G,B,E]2 [F,=D]2 [E,E]2 D,2 | C,4 B,,4 | %22
 A,,6 =A,,2 | B,,2 C,2 D,2 =D,2 | z4 B,2 z2 | z2 [A,,A,]2 A,2 E,2 | A,,2 A,,2 A,,2 z2 | %27
 z2 [E,G,]2 [G,B,]2 [A,E]2 | E2 F,2 E,2 D,2 | C,4 B,,4 | A,,2 =A,,2 B,,2 D,2 | [E,CE]4 [E,B,D]4 | %32
[M:3/4] [A,,A,]6 |] %33
V:3
 x8 | x8 | x8 | x8 | x8 | x8 | x8 | x8 | x8 | x8 | x8 | x8 | z4 [CA]4 | z4 .F2 z2 | x8 | %15
[M:9/8] x9 |[M:1/4] x2 |[M:4/4] x8 | [CE]2 [B,D]2 [A,C]2 E2 | z2 E2 E2 c2 | z2 A2 G2 [EGB]2 | x8 | %22
 x8 | F2- [EFc]2 F2- [B,FA]2 | [CA]4 z4 | z2 E2 E2 [DEB]2 | [CE]2 [B,D]2 [A,C]2 E2 | z2 E2 E2 c2 | %28
 z2 [=DA]2 [EG]2 [EGB]2 | x8 | [Ec]2- [E-_Gc]2 [EF]2- [EFB]2 | x8 |[M:3/4] x6 |] %33
V:4
 x8 | x8 | x8 | x8 | x8 | x8 | x8 | x8 | x8 | x8 | x8 | x8 | z4 z2 A,2 | x8 | x8 |[M:9/8] x9 | %16
[M:1/4] x2 |[M:4/4] x8 | x8 | x8 | x8 | x8 | x8 | x8 | x8 | x8 | x8 | x8 | x8 | x8 | x8 | x8 | %32
[M:3/4] x6 |] %33
V:5
 x8 | x8 | x8 | x4[K:bass] x4 | x8 | x8 | x8 | x8 | x8 | x8 | x8 | x8 | C,2 [B,,E,]2 [A,,E,]2 z C | %13
 x8 | x8 |[M:9/8] x9 |[M:1/4][K:treble] x2 |[M:4/4] z2[K:bass] A,,2 A,2 E,2 | x8 | x8 | x8 | x8 | %22
 x8 | x8 | E,6 z2 | x8 | x8 | x8 | x8 | x8 | x8 | x8 |[M:3/4] x6 |] %33

